public/svg/letterD.svg

<svg xmlns="http://www.w3.org/2000/svg" width="48" height="48" fill="none" xmlns:v="https://vecta.io/nano"><circle cx="24" cy="24" r="24" fill="#ffddd3"/><path d="M23.85 17.364c1.332 0 2.496.264 3.492.792s1.764 1.272 2.304 2.232c.552.948.828 2.046.828 3.294 0 1.236-.276 2.334-.828 3.294-.54.96-1.314 1.704-2.322 2.232-.996.528-2.154.792-3.474.792h-4.734V17.364h4.734zm-.198 9.972c1.164 0 2.07-.318 2.718-.954s.972-1.536.972-2.7-.324-2.07-.972-2.718-1.554-.972-2.718-.972h-1.458v7.344h1.458z" fill="#ff5722"/></svg>

<svg xmlns="http://www.w3.org/2000/svg" width="48" height="48" viewBox="0 0 48 48" fill="none">
<circle cx="24" cy="24" r="24" fill="#FFDDD3"/>
<path d="M23.85 17.364C25.182 17.364 26.346 17.628 27.342 18.156C28.338 18.684 29.106 19.428 29.646 20.388C30.198 21.336 30.474 22.434 30.474 23.682C30.474 24.918 30.198 26.016 29.646 26.976C29.106 27.936 28.332 28.68 27.324 29.208C26.328 29.736 25.17 30 23.85 30H19.116V17.364H23.85ZM23.652 27.336C24.816 27.336 25.722 27.018 26.37 26.382C27.018 25.746 27.342 24.846 27.342 23.682C27.342 22.518 27.018 21.612 26.37 20.964C25.722 20.316 24.816 19.992 23.652 19.992H22.194V27.336H23.652Z" fill="#FF5722"/>
</svg>
